src/assets/svgs/active-positions.svg

<svg width="60" height="58" viewBox="0 0 60 58" fill="none" xmlns="http://www.w3.org/2000/svg">
<rect opacity="0.05" y="0.469849" width="59.0336" height="57.3825" rx="10" fill="#DD63F1"/>
<path fill-rule="evenodd" clip-rule="evenodd" d="M29.7528 36.5063C27.6691 36.5063 25.9745 34.8592 25.9745 32.8338C25.9745 30.8083 27.6691 29.1612 29.7528 29.1612C31.8365 29.1612 33.531 30.8083 33.531 32.8338C33.531 34.8592 31.8365 36.5063 29.7528 36.5063ZM29.7528 27.3249C26.6273 27.3249 24.0854 29.7956 24.0854 32.8338C24.0854 35.8719 26.6273 38.3426 29.7528 38.3426C32.8784 38.3426 35.4202 35.8719 35.4202 32.8338C35.4202 29.7956 32.8784 27.3249 29.7528 27.3249Z" fill="#DD63F1"/>
<path fill-rule="evenodd" clip-rule="evenodd" d="M35.2707 24.2916C34.1051 23.5773 32.7856 23.0861 31.3706 22.8694L34.9987 17.2256H40.242L35.2707 24.2916ZM38.2536 32.834C38.2536 37.3899 34.4404 41.0973 29.7526 41.0973C25.0657 41.0973 21.2515 37.3899 21.2515 32.834C21.2515 28.2773 25.0657 24.5707 29.7526 24.5707C34.4404 24.5707 38.2536 28.2773 38.2536 32.834ZM19.2632 17.2256H24.5065L28.1355 22.8694C26.7196 23.0861 25.401 23.5773 24.2345 24.2916L19.2632 17.2256ZM42.8669 15.8787C42.7044 15.5775 42.3823 15.3893 42.0319 15.3893H34.4754C34.1495 15.3893 33.8473 15.5518 33.6744 15.8208L29.7526 21.9201L25.8308 15.8208C25.6579 15.5518 25.3557 15.3893 25.0298 15.3893H17.4733C17.1229 15.3893 16.8017 15.5775 16.6383 15.8787C16.4749 16.1798 16.4966 16.5443 16.694 16.8253L22.7326 25.4099C20.6669 27.2572 19.3624 29.8969 19.3624 32.834C19.3624 38.4026 24.0238 42.9336 29.7526 42.9336C35.4823 42.9336 40.1428 38.4026 40.1428 32.834C40.1428 29.8969 38.8383 27.2572 36.7726 25.4099L42.8121 16.8253C43.0095 16.5443 43.0312 16.1798 42.8669 15.8787Z" fill="#DD63F1"/>
</svg>

<svg width="60" height="58" fill="none" xmlns="http://www.w3.org/2000/svg"><rect opacity=".05" y=".47" width="59.034" height="57.383" rx="10" fill="#DD63F1"/><path fill-rule="evenodd" clip-rule="evenodd" d="M29.753 36.506c-2.084 0-3.779-1.647-3.779-3.672 0-2.026 1.695-3.673 3.779-3.673 2.084 0 3.778 1.647 3.778 3.673 0 2.025-1.694 3.672-3.778 3.672zm0-9.181c-3.126 0-5.668 2.47-5.668 5.509 0 3.038 2.542 5.509 5.668 5.509 3.125 0 5.667-2.471 5.667-5.51 0-3.037-2.542-5.508-5.667-5.508z" fill="#DD63F1"/><path fill-rule="evenodd" clip-rule="evenodd" d="M35.27 24.292a10.491 10.491 0 0 0-3.9-1.423L35 17.226h5.243l-4.971 7.066zm2.984 8.542c0 4.556-3.814 8.263-8.501 8.263-4.687 0-8.502-3.707-8.502-8.263 0-4.557 3.815-8.263 8.502-8.263 4.687 0 8.5 3.706 8.5 8.263zm-18.99-15.608h5.242l3.63 5.643a10.496 10.496 0 0 0-3.901 1.423l-4.972-7.066zm23.603-1.347a.946.946 0 0 0-.835-.49h-7.557a.95.95 0 0 0-.8.432l-3.922 6.1-3.922-6.1a.95.95 0 0 0-.801-.432h-7.557a.947.947 0 0 0-.835.49.897.897 0 0 0 .056.946l6.039 8.585c-2.066 1.847-3.37 4.487-3.37 7.424 0 5.569 4.66 10.1 10.39 10.1s10.39-4.531 10.39-10.1c0-2.937-1.305-5.577-3.37-7.424l6.04-8.585a.895.895 0 0 0 .054-.946z" fill="#DD63F1"/></svg>
